res/skins/LateNight/style/spinny3_mask.svg

<?xml version="1.0" encoding="UTF-8" standalone="no"?>
<!-- Created with Inkscape (http://www.inkscape.org/) -->

<svg
   xmlns:dc="http://purl.org/dc/elements/1.1/"
   xmlns:cc="http://creativecommons.org/ns#"
   xmlns:rdf="http://www.w3.org/1999/02/22-rdf-syntax-ns#"
   xmlns:svg="http://www.w3.org/2000/svg"
   xmlns="http://www.w3.org/2000/svg"
   xmlns:xlink="http://www.w3.org/1999/xlink"
   xmlns:sodipodi="http://sodipodi.sourceforge.net/DTD/sodipodi-0.dtd"
   xmlns:inkscape="http://www.inkscape.org/namespaces/inkscape"
   version="1.1"
   width="100"
   height="100"
   id="svg2"
   style="enable-background:new"
   sodipodi:docname="spinny3_mask.svg"
   inkscape:version="0.92.3 (unknown)">
  <sodipodi:namedview
     pagecolor="#ffffff"
     bordercolor="#666666"
     borderopacity="1"
     objecttolerance="10"
     gridtolerance="10"
     guidetolerance="10"
     inkscape:pageopacity="0"
     inkscape:pageshadow="2"
     inkscape:window-width="1366"
     inkscape:window-height="740"
     id="namedview7572"
     showgrid="false"
     inkscape:snap-page="true"
     inkscape:zoom="2.4583333"
     inkscape:cx="1.4237288"
     inkscape:cy="48"
     inkscape:window-x="0"
     inkscape:window-y="0"
     inkscape:window-maximized="1"
     inkscape:current-layer="svg2" />
  <defs
     id="defs4">
    <linearGradient
       id="linearGradient3861">
      <stop
         id="stop3863"
         style="stop-color:#09b2ae;stop-opacity:1"
         offset="0" />
      <stop
         id="stop3865"
         style="stop-color:#09b2ae;stop-opacity:0"
         offset="1" />
    </linearGradient>
    <linearGradient
       id="linearGradient3851">
      <stop
         id="stop3853"
         style="stop-color:#09b2ae;stop-opacity:1"
         offset="0" />
      <stop
         id="stop3855"
         style="stop-color:#09b2ae;stop-opacity:0"
         offset="1" />
    </linearGradient>
    <linearGradient
       x1="48.010761"
       y1="0.07037171"
       x2="47.827461"
       y2="24.407314"
       id="linearGradient3857"
       xlink:href="#linearGradient3851"
       gradientUnits="userSpaceOnUse" />
    <radialGradient
       cx="50.002552"
       cy="45.492374"
       r="20.076782"
       fx="50.002552"
       fy="45.492374"
       id="radialGradient3867"
       xlink:href="#linearGradient3861"
       gradientUnits="userSpaceOnUse" />
    <radialGradient
       cx="50.002552"
       cy="45.492374"
       r="20.076782"
       fx="50.002552"
       fy="45.492374"
       id="radialGradient3299"
       xlink:href="#linearGradient3861"
       gradientUnits="userSpaceOnUse"
       gradientTransform="matrix(1.0416667,0,0,1.0416667,-2.0859917,2.6121102)" />
    <linearGradient
       x1="48.010761"
       y1="0.07037171"
       x2="47.827461"
       y2="24.407314"
       id="linearGradient3302"
       xlink:href="#linearGradient3851"
       gradientUnits="userSpaceOnUse"
       gradientTransform="matrix(1.0025909,0,0,1.0052468,1.956736,1.9207072)" />
  </defs>
  <metadata
     id="metadata7">
    <rdf:RDF>
      <cc:Work
         rdf:about="">
        <dc:format>image/svg+xml</dc:format>
        <dc:type
           rdf:resource="http://purl.org/dc/dcmitype/StillImage" />
        <dc:title></dc:title>
      </cc:Work>
    </rdf:RDF>
  </metadata>
  <g
     transform="translate(0,-952.36218)"
     id="layer1"
     style="display:none">
    <image
       x="0"
       y="956.36218"
       width="96"
       height="96"
       id="image3047" />
  </g>
  <path
     d="M 97.916667,50 A 47.916667,47.916667 0 1 1 2.0833333,50 47.916667,47.916667 0 1 1 97.916667,50 Z"
     id="path3849"
     style="opacity:0.4;fill:url(#linearGradient3302);fill-opacity:1;fill-rule:nonzero;stroke:none;stroke-width:1.04166663"
     inkscape:connector-curvature="0" />
  <path
     d="m 70.913315,50 a 20.913315,20.913315 0 0 1 -41.82663,0 20.913315,20.913315 0 1 1 41.82663,0 z"
     id="path3859"
     style="opacity:0.4;fill:url(#radialGradient3299);fill-opacity:1;fill-rule:nonzero;stroke:none;stroke-width:1.04166663"
     inkscape:connector-curvature="0" />
  <g
     id="layer3"
     style="display:none;opacity:0.95999995"
     transform="translate(0,4)">
    <path
       d="M 46,3.7264493 C 45.96903,2.8335721 46.545072,1.949526 47.936937,1.9914377 49.328802,2.0333497 49.963562,2.675413 49.984216,3.742233 L 50,42.800846 C 50,43.482472 48.712307,43.913653 47.950679,43.9057 47.18905,43.897748 46.015784,43.447975 46,42.800846 Z"
       id="rect3776"
       style="fill:#ffffff;fill-opacity:1;fill-rule:nonzero;stroke:none"
       inkscape:connector-curvature="0" />
  </g>
  <g
     id="g8130">
    <path
       inkscape:connector-curvature="0"
       style="fill:#000000;fill-opacity:1;fill-rule:nonzero;stroke:none;stroke-width:1.04166663;enable-background:new"
       id="path3830"
       d="m 54.166667,50 a 4.166667,4.166667 0 0 1 -8.333334,0 4.166667,4.166667 0 1 1 8.333334,0 z" />
    <path
       inkscape:connector-curvature="0"
       style="color:#000000;display:inline;overflow:visible;visibility:visible;fill:#1e1e1e;fill-opacity:1;fill-rule:nonzero;stroke:none;stroke-width:11.66666603;marker:none;enable-background:accumulate"
       id="rect3033"
       d="M 0,0 V 100 H 100 V 0 Z m 50,3.125 c 12.258677,0 24.469827,5.0687906 33.138021,13.736979 C 91.806215,25.530168 96.875,37.741323 96.875,50 c 0,12.258677 -5.068785,24.469832 -13.736979,33.138021 l -0.09766,0.09766 C 74.378196,91.844394 62.212711,96.875 50,96.875 37.741323,96.875 25.530173,91.806209 16.861979,83.138021 l -0.09766,-0.09766 C 8.1556005,74.378201 3.125,62.212711 3.125,50 3.125,37.741323 8.1937855,25.530168 16.861979,16.861979 25.530173,8.1937906 37.741323,3.125 50,3.125 Z" />
    <path
       inkscape:connector-curvature="0"
       style="display:inline;fill:none;stroke:#000000;stroke-width:1;stroke-miterlimit:4;stroke-dasharray:none;stroke-opacity:1;enable-background:new"
       id="path4919"
       d="M 96.875002,50 A 46.875001,46.875 0 0 1 3.1250002,50 46.875001,46.875 0 1 1 96.875002,50 Z" />
  </g>
</svg>

<?xml version="1.0" encoding="UTF-8"?>
<!-- Created with Inkscape (http://www.inkscape.org/) -->
<svg id="svg2" width="100" height="100" enable-background="new" version="1.1" xmlns="http://www.w3.org/2000/svg" xmlns:cc="http://creativecommons.org/ns#" xmlns:dc="http://purl.org/dc/elements/1.1/" xmlns:rdf="http://www.w3.org/1999/02/22-rdf-syntax-ns#" xmlns:xlink="http://www.w3.org/1999/xlink">
 <defs id="defs4">
  <radialGradient id="radialGradient3299" cx="50.003" cy="45.492" r="20.077" gradientTransform="matrix(1.0417 0 0 1.0417 -2.086 2.6121)" gradientUnits="userSpaceOnUse">
   <stop id="stop3863" stop-color="#09b2ae" offset="0"/>
   <stop id="stop3865" stop-color="#09b2ae" stop-opacity="0" offset="1"/>
  </radialGradient>
  <linearGradient id="linearGradient3302" x1="48.011" x2="47.827" y1=".070372" y2="24.407" gradientTransform="matrix(1.0026 0 0 1.0052 1.9567 1.9207)" gradientUnits="userSpaceOnUse">
   <stop id="stop3853" stop-color="#09b2ae" offset="0"/>
   <stop id="stop3855" stop-color="#09b2ae" stop-opacity="0" offset="1"/>
  </linearGradient>
 </defs>
 <metadata id="metadata7">
  <rdf:RDF>
   <cc:Work rdf:about="">
    <dc:format>image/svg+xml</dc:format>
    <dc:type rdf:resource="http://purl.org/dc/dcmitype/StillImage"/>
    <dc:title/>
   </cc:Work>
  </rdf:RDF>
 </metadata>
 <g id="layer1" transform="translate(0 -952.36)" display="none">
  <image id="image3047" y="956.36" width="96" height="96"/>
 </g>
 <path id="path3849" d="m97.917 50a47.917 47.917 0 1 1-95.833 0 47.917 47.917 0 1 1 95.833 0z" fill="url(#linearGradient3302)" opacity=".4"/>
 <path id="path3859" d="m70.913 50a20.913 20.913 0 0 1-41.827 0 20.913 20.913 0 1 1 41.827 0z" fill="url(#radialGradient3299)" opacity=".4"/>
 <g id="layer3" transform="translate(0,4)" display="none" opacity=".96">
  <path id="rect3776" d="m46 3.7264c-0.03097-0.89288 0.54507-1.7769 1.9369-1.735 1.3919 0.041912 2.0266 0.68398 2.0473 1.7508l0.015784 39.059c0 0.68163-1.2877 1.1128-2.0493 1.1049-0.76163-0.007952-1.9349-0.45772-1.9507-1.1049z" fill="#fff"/>
 </g>
 <g id="g8130">
  <path id="path3830" d="m54.167 50a4.1667 4.1667 0 0 1-8.3333 0 4.1667 4.1667 0 1 1 8.3333 0z" enable-background="new"/>
  <path id="rect3033" d="m0 0v100h100v-100zm50 3.125c12.259 0 24.47 5.0688 33.138 13.737 8.6682 8.6682 13.737 20.879 13.737 33.138s-5.0688 24.47-13.737 33.138l-0.09766 0.09766c-8.6622 8.6087-20.828 13.639-33.04 13.639-12.259 0-24.47-5.0688-33.138-13.737l-0.09766-0.09766c-8.6087-8.6622-13.639-20.828-13.639-33.04 0-12.259 5.0688-24.47 13.737-33.138 8.6682-8.6682 20.879-13.737 33.138-13.737z" color="#000000" enable-background="accumulate" fill="#1e1e1e"/>
  <path id="path4919" d="m96.875 50a46.875 46.875 0 0 1-93.75 0 46.875 46.875 0 1 1 93.75 0z" enable-background="new" fill="none" stroke="#000"/>
 </g>
</svg>
